X:30
T:30.  Lost Ball in High Weeds ( GCGEb tuning)
C:c 2000 Harry Bolick
R:Breakdown
O:United States
A:Hastings On Hudson, New York
M:4/4
L:1/8
Q:250
K:Cm
 G, |: "Cm" C C2 D E2 E/2D/2E | G2 cG (BB/2)c/2 B/2G/2F/2E/2 | 
C C2 D E2 E/2D/2E/2G/2 | cc/2B/2 GG/2B/2 G/2F/2E C2:|
 |: g f2 e gf/2g/2 f/2e/2c/2B/2 |  g f2 e  fg a/2g/2f  |
  g/2f/2 c2 Bg f/2g/2f/2e/2 c/2B/2  |  g f/2g/2f/2e/2  c/2B/2 g/2f/2e/2B/2 c2 :|
